X: 23304
T: Leeside Sessions, The
R: reel
M: 4/4
K: Gmajor
|:G,2B,D G2BG|AGEG Bdd2|G,A,B,D G2BG|AdBA GEEG|
G,2B,D G2BG|AGEG BddG|eddB AdGE|1 DEFA GEDB,:|2 DEFA Ggfg||
|:e8|d3d dBGd|e2ge eddg|GAAG ABcd|
e3e edBd|dBde dBGB|A2BA AGEG|G,A,B,D GABd:|
|:eggg eggg|dggg dgBg|eggg eggg|efgb a2gf|eggg eggg|
dggg dgBG|1 AcBc AdcA|~B2AF GABd:|2 A2A/A/A AGEG|G,A,B,D GEDB,||

